X: 1638
T: Anne-Marie Morrison Of Borve
R: jig
M: 6/8
K: Dmajor
d|:d2d cde|dcd AGF|GAB AGF|GEEE2d|
d2d cde|dcdA2c|d2gf2e|1 fddd2d:|2 fdd dFG||
|:A2F GFE|Ddcd2F|G2BA2F|GEE EFG|
[1A2F GFE|Ddcd2F|G2E cAG|FDD DFG:|
[2F2AG2B|AB=c B^cd|c2A GFE|FDDD2||

